vectors/kucoin/kucoin.svg

<svg version="1.1" xmlns="http://www.w3.org/2000/svg" xmlns:xlink="http://www.w3.org/1999/xlink" viewBox="0 0 24 24"><title>Kucoin icon</title><path d="M3.0481 2.02661C4.17377 2.02661 5.08815 2.941 5.08815 4.06666V19.9194C5.08815 21.0451 4.17377 21.9595 3.0481 21.9595C1.92244 21.9595 1.00806 21.0451 1.00806 19.9194V4.06666C1.01152 2.941 1.92244 2.02661 3.0481 2.02661V2.02661Z" fill="#2296E3"/>
<path d="M16.2201 0.793554C17.0133 1.59364 17.0063 2.88555 16.2062 3.67525L4.93576 14.828C4.13568 15.6211 2.84376 15.6142 2.05407 14.8141C1.26091 14.014 1.26783 12.7221 2.06792 11.9324L13.3384 0.783163C14.1385 -0.0134594 15.4304 -0.00653219 16.2201 0.793554V0.793554Z" fill="#2296E3"/>
<path d="M16.22 23.1786C17.0131 22.3786 17.0062 21.0866 16.2061 20.2969L4.93564 9.14769C4.13555 8.35454 2.84364 8.36146 2.05394 9.16155C1.26079 9.96163 1.26771 11.2535 2.0678 12.0432L13.3383 23.1925C14.1384 23.9891 15.4303 23.9822 16.22 23.1786V23.1786Z" fill="#2296E3"/>
<path d="M22.3679 14.6201C23.1611 15.4202 23.1576 16.7121 22.361 17.5053L16.4314 23.4073C15.6313 24.2004 14.3394 24.1969 13.5462 23.4003C12.753 22.6002 12.7565 21.3083 13.5531 20.5152L19.4828 14.6132C20.2794 13.8201 21.5713 13.8235 22.3679 14.6201V14.6201Z" fill="#2296E3"/>
<path d="M22.3679 9.37981C23.1611 8.57972 23.1576 7.2878 22.361 6.49465L16.4314 0.592711C15.6313 -0.200448 14.3394 -0.196985 13.5462 0.599638C12.753 1.39972 12.7565 2.69164 13.5531 3.4848L19.4828 9.38673C20.2828 10.1799 21.5748 10.1799 22.3679 9.37981Z" fill="#2296E3"/>
<path d="M15.0043 14.0591C16.1405 14.0591 17.0616 13.138 17.0616 12.0017C17.0616 10.8655 16.1405 9.94434 15.0043 9.94434C13.868 9.94434 12.9469 10.8655 12.9469 12.0017C12.9469 13.138 13.868 14.0591 15.0043 14.0591Z" fill="#2296E3"/>
</svg>

<svg xmlns="http://www.w3.org/2000/svg" viewBox="0 0 24 24"><path d="M3.048 2.027a2.04 2.04 0 012.04 2.04v15.852a2.04 2.04 0 01-2.04 2.04 2.041 2.041 0 01-2.04-2.04V4.067a2.044 2.044 0 012.04-2.04z" fill="#2296E3"/><path d="M16.22.794c.793.8.786 2.092-.014 2.881L4.936 14.828c-.8.793-2.092.786-2.882-.014a2.036 2.036 0 01.014-2.882L13.338.783c.8-.796 2.092-.79 2.882.01z" fill="#2296E3"/><path d="M16.22 23.179c.793-.8.786-2.092-.014-2.882L4.936 9.147a2.036 2.036 0 00-2.882.015c-.793.8-.786 2.091.014 2.881l11.27 11.15c.8.796 2.092.79 2.882-.014z" fill="#2296E3"/><path d="M22.368 14.62c.793.8.79 2.092-.007 2.885l-5.93 5.902c-.8.793-2.092.79-2.885-.007-.793-.8-.79-2.092.007-2.885l5.93-5.902a2.043 2.043 0 012.885.007zm0-5.24c.793-.8.79-2.092-.007-2.885L16.431.593A2.043 2.043 0 0013.546.6c-.793.8-.79 2.092.007 2.885l5.93 5.902a2.04 2.04 0 002.885-.007zm-7.364 4.68a2.057 2.057 0 100-4.116 2.057 2.057 0 000 4.115z" fill="#2296E3"/></svg>
